X:297
T:Gorthleck's Highland Plaid
R:Strathspey
B:The Athole Collection
M:C
L:1/8
K:E
B|E<E B>A G>FE>c|=d>A A<d AD F2|E<E B>A G>FE>a|g>ef>d e/e/e e:|
g|e/f/g/a/ b>e g>e e<g|a>gf>e =d>e f<a|e/f/g/a/ b>e g>eb>a|g>e f<g e/e/e e2|
Ba g>e e<g|a>gf>e =d>e fg/a/|b>ga>f g>e f<d|B<a g>f e/e/e e2||
|:E<E BA G>FE>c|=d>A A<d A<D F2|E<E B>A G>F E<a|g>ef>d e/e/e e2:|
b|a/g/f/e/ b>e g>eb>e|f/e/=d/c/ a<d b>da>d|a/g/f/e/ b>e g>eb>a|g>e f<g e/e/e e2|
Ba g<e e<g|a>gf>e =d>e fg/a/|b>ga>f g>e f<d|B<a g>f e/e/e e||
